svg/pen-tool-2.svg

<svg width="24" height="24" viewBox="0 0 24 24" fill="none" xmlns="http://www.w3.org/2000/svg">
<path d="M10.75 22.5001H13.27C14.23 22.5001 14.85 21.8201 14.67 20.9901L14.26 19.1802H9.75999L9.35 20.9901C9.17 21.7701 9.85 22.5001 10.75 22.5001Z" stroke="#292D32" stroke-width="1.5" stroke-linecap="round" stroke-linejoin="round"/>
<path d="M14.26 19.1702L15.99 17.6301C16.96 16.7701 17 16.1701 16.23 15.2001L13.18 11.3302C12.54 10.5202 11.49 10.5202 10.85 11.3302L7.8 15.2001C7.03 16.1701 7.02999 16.8001 8.03999 17.6301L9.77 19.1702" stroke="#292D32" stroke-width="1.5" stroke-linecap="round" stroke-linejoin="round"/>
<path d="M12.01 11.1201V13.6501" stroke="#292D32" stroke-width="1.5" stroke-linecap="round" stroke-linejoin="round"/>
<path d="M12.52 5H11.52C10.97 5 10.52 4.55 10.52 4V3C10.52 2.45 10.97 2 11.52 2H12.52C13.07 2 13.52 2.45 13.52 3V4C13.52 4.55 13.07 5 12.52 5Z" stroke="#292D32" stroke-width="1.5" stroke-linecap="round" stroke-linejoin="round"/>
<path d="M3.27 14.17H4.27C4.82 14.17 5.27 13.72 5.27 13.17V12.17C5.27 11.62 4.82 11.1699 4.27 11.1699H3.27C2.72 11.1699 2.27 11.62 2.27 12.17V13.17C2.27 13.72 2.72 14.17 3.27 14.17Z" stroke="#292D32" stroke-width="1.5" stroke-linecap="round" stroke-linejoin="round"/>
<path d="M20.73 14.17H19.73C19.18 14.17 18.73 13.72 18.73 13.17V12.17C18.73 11.62 19.18 11.1699 19.73 11.1699H20.73C21.28 11.1699 21.73 11.62 21.73 12.17V13.17C21.73 13.72 21.28 14.17 20.73 14.17Z" stroke="#292D32" stroke-width="1.5" stroke-linecap="round" stroke-linejoin="round"/>
<path d="M10.52 3.56006C6.71 4.01006 3.75 7.24004 3.75 11.17" stroke="#292D32" stroke-width="1.5" stroke-linecap="round" stroke-linejoin="round"/>
<path d="M20.25 11.17C20.25 7.25004 17.31 4.03006 13.52 3.56006" stroke="#292D32" stroke-width="1.5" stroke-linecap="round" stroke-linejoin="round"/>
</svg>

<svg xmlns="http://www.w3.org/2000/svg" width="24" height="24" fill="none"><path stroke="#292D32" stroke-linecap="round" stroke-linejoin="round" stroke-width="1.5" d="M10.75 22.5h2.52c.96 0 1.58-.68 1.4-1.51l-.41-1.81h-4.5l-.41 1.81c-.18.78.5 1.51 1.4 1.51M14.26 19.17l1.73-1.54c.97-.86 1.01-1.46.24-2.43l-3.05-3.87c-.64-.81-1.69-.81-2.33 0L7.8 15.2c-.77.97-.77 1.6.24 2.43l1.73 1.54M12.01 11.12v2.53M12.52 5h-1c-.55 0-1-.45-1-1V3c0-.55.45-1 1-1h1c.55 0 1 .45 1 1v1c0 .55-.45 1-1 1M3.27 14.17h1c.55 0 1-.45 1-1v-1c0-.55-.45-1-1-1h-1c-.55 0-1 .45-1 1v1c0 .55.45 1 1 1M20.73 14.17h-1c-.55 0-1-.45-1-1v-1c0-.55.45-1 1-1h1c.55 0 1 .45 1 1v1c0 .55-.45 1-1 1M10.52 3.56c-3.81.45-6.77 3.68-6.77 7.61"/><path stroke="#292D32" stroke-linecap="round" stroke-linejoin="round" stroke-width="1.5" d="M20.25 11.17c0-3.92-2.94-7.14-6.73-7.61"/></svg>
